X: 1424
T: An Tulach
R: mazurka
M: 3/4
K: Gmajor
|:B/|c>B A>e d>c|B>D G2 G>B|A>D F2 (3FGA|B>D G2 G>B|
c2 A>E (3edc|B>D G2- G>B|A>D F2- F>A|1 G2 G2- G3/2:|2 G4||
|:D2|A>D F2- F>D|B>D G2- G>B|A>D c2- c>D|B>D G2- G>B|
c>B A>e d>c|(3Bcd G>F G>B|A>D (3FED F>A|1 G4:|2 G2 G2- G3/2||

